scripts/debs/qogir-icon-theme/usr/share/icons/Qogir/scalable/apps/buho.svg

<svg width="64" height="64" version="1.1" viewBox="0 0 64 64" xmlns="http://www.w3.org/2000/svg">
 <rect x="6" y="6" width="52" height="52" rx="7" ry="7" fill="#f2f2f2" stroke="#cccccc" stroke-width="2" style="paint-order:normal"/>
 <rect x="6" y="6" width="52" height="52" rx="7" ry="7" fill="#f2f2f2" stroke-width="4.9134" style="paint-order:normal"/>
 <path d="m13.059 29c-2.2486 0-4.0588 1.8102-4.0588 4.0588v17.882c0 2.2486 1.8102 4.0588 4.0588 4.0588l32.471 1e-6 9.4706-9.4706-1e-6 -12.471c0-2.2486-1.8102-4.0588-4.0588-4.0588z" fill="#f2a637" stroke="#000000" stroke-linecap="round" stroke-linejoin="round" stroke-opacity=".15" style="paint-order:normal"/>
 <path d="m45.529 55 9.4706-9.4706-5.2899-0.09182c-2.2482-0.03902-4.009 1.8108-4.0588 4.0588z" fill="#f67400" stroke="#000000" stroke-linecap="round" stroke-linejoin="round" stroke-opacity=".15" style="paint-order:normal"/>
 <path d="m13.059 19c-2.2486 0-4.0588 1.8102-4.0588 4.0588l-7e-7 17.882c-1e-7 2.2486 1.8102 4.0588 4.0588 4.0588l32.471 2e-6 9.4706-9.4706 6e-6 -12.471c1e-6 -2.2486-1.8102-4.0588-4.0588-4.0588z" fill="#da4554" stroke="#000000" stroke-linecap="round" stroke-linejoin="round" stroke-opacity=".15" style="paint-order:normal"/>
 <path d="m13.059 9c-2.2486 0-4.0588 1.8102-4.0588 4.0588l1.2e-6 17.882c2e-7 2.2486 1.8102 4.0588 4.0588 4.0588l32.471 2e-6 9.4706-9.4706-1e-6 -12.471c0-2.2486-1.8102-4.0588-4.0588-4.0588z" fill="#2fa0f3" stroke="#000000" stroke-linecap="round" stroke-linejoin="round" stroke-opacity=".15" style="paint-order:normal"/>
 <path d="m45.529 45 9.4706-9.4706-5.2899-0.09181c-2.2482-0.03903-4.009 1.8108-4.0588 4.0588z" fill="#c0392b" stroke="#000000" stroke-linecap="round" stroke-linejoin="round" stroke-opacity=".15" style="paint-order:normal"/>
 <path d="m45.468 35 9.5315-9.5165-5.3791-0.04602c-2.2485-0.01923-4.1138 1.8109-4.0588 4.0588-0.0203 2.2702-0.09363 5.5037-0.09363 5.5037z" fill="#2980b9" stroke="#000000" stroke-linecap="round" stroke-linejoin="round" stroke-opacity=".15" style="paint-order:normal"/>
</svg>

<svg xmlns="http://www.w3.org/2000/svg" width="64" height="64"><rect width="52" height="52" x="6" y="6" fill="#f2f2f2" stroke="#ccc" stroke-width="2" rx="7" ry="7" style="paint-order:normal"/><rect width="52" height="52" x="6" y="6" fill="#f2f2f2" rx="7" ry="7" style="paint-order:normal"/><path fill="#f2a637" stroke="#000" stroke-linecap="round" stroke-linejoin="round" stroke-opacity=".15" d="M13.059 29A4.05 4.05 0 0 0 9 33.059V50.94A4.05 4.05 0 0 0 13.06 55h32.47L55 45.529V33.058a4.05 4.05 0 0 0-4.058-4.059z" style="paint-order:normal"/><path fill="#f67400" stroke="#000" stroke-linecap="round" stroke-linejoin="round" stroke-opacity=".15" d="m45.529 55 9.47-9.47-5.29-.092c-2.248-.04-4.008 1.81-4.058 4.058z" style="paint-order:normal"/><path fill="#da4554" stroke="#000" stroke-linecap="round" stroke-linejoin="round" stroke-opacity=".15" d="M13.059 19A4.05 4.05 0 0 0 9 23.059V40.94A4.05 4.05 0 0 0 13.06 45h32.47L55 35.529V23.058a4.05 4.05 0 0 0-4.058-4.059z" style="paint-order:normal"/><path fill="#2fa0f3" stroke="#000" stroke-linecap="round" stroke-linejoin="round" stroke-opacity=".15" d="M13.059 9A4.05 4.05 0 0 0 9 13.059V30.94A4.05 4.05 0 0 0 13.06 35h32.47L55 25.529V13.058a4.05 4.05 0 0 0-4.058-4.059z" style="paint-order:normal"/><path fill="#c0392b" stroke="#000" stroke-linecap="round" stroke-linejoin="round" stroke-opacity=".15" d="m45.529 45 9.47-9.47-5.29-.092c-2.248-.04-4.008 1.81-4.058 4.058z" style="paint-order:normal"/><path fill="#2980b9" stroke="#000" stroke-linecap="round" stroke-linejoin="round" stroke-opacity=".15" d="m45.468 35 9.531-9.517-5.379-.046c-2.248-.019-4.113 1.811-4.058 4.06-.02 2.27-.094 5.503-.094 5.503" style="paint-order:normal"/></svg>
